X:1
T:Rochester Schottische
M:4/4
R:reel
Q:1/2=120
L:1/8
%F:http://home.freeuk.net/leedscontra/GoodParkingTunes/reels.abc	 2007-03-19 18:28:44 UT
K:D
|:"D"f2ec d2Bc|"D"dBAG FED2 |"D"f2ec dA B2|"A"A3B A4|
"D"f2ec d2Bc|"D"dBAG FDFG|"D"ABAG "A"FDE2|"D"D3E D4:|
|:"D"ABAG FEDF |"G"EDEF G2A2-|"D"ABAG FED2|"G"EDFDG2FG|
"D"ABAG FEDF |"G"EDEF G2A2-|"D"ABAG "A"FAE2|"D"D3ED4:||
